X: 1
T:Bourre de l'lphant jaune
R:Bourre
C:Franco-German Band !! in Gennetines 98
H:Composed at Gennetines 1998 in the camp
A:
O:
M:3/4
L:1/4
Q:250
K:G
"G"d3|"G"B2 A/2B/2|"Am"cBA|"G"B2 G|"G"d3|"G"B2 A/2B/2|"Am"cBA|"G"G3:|!
"G"DGA|"G"B2 A/2B/2|"Am"cBA|"G"B2 G|"G"DGA|"G"B2 A/2B/2|"Am"cBA|1"Am"A3:
|2"G"G3||!
